X: 20081
Q: "Very slow."
M: 2/4
L: 1/8
K: B
d2(dc) | (cB)(GF) | F2GB | c2(Bc) |\
{Bc}d2(dc) | (cB)(GF) | F2(GB) | B2zd |\
f3e | {e}d2cB | {B}c2zf | (ed)(cB) |\
(Bc/d/) c2 | zFFG |
f2ff | g2gf | {e}d2dc | B2(cd) |\
e2d2 | f2(fe) | {e}d2(c>B) | A2(G>F) |\
{e}d2cB | G2c>c | B2F2 | z2FF |\
f2fe | {e}d3c |
{e}d2cB | B2cz | zFFG | B2Bc |\
{e}d2cB | B2cz | {Bc}d2dc | (cB)(GF) |\


